**harm	**harte	**silbe	**silbe	**rhyme	**timestamp	**phrase	**leadinstrument	**kern
*M4/4	*M4/4	*	*	*	*	*	*	*
*	*	*	*	*	*	*	*	*
*	*	*	*	*	*	*	*	*
*D:	*D:	*	*	*	*	*	*	*D:
*	*	*	*	*	*	*	*	*
*	*	*	*	*	*	*	*	*
1r;	N	.	.	.	0	.	r	1r;
=1	=1	=1	=1	=1	=1	=1	=1	=1
*>Letter>A	*>Letter>A	*>Letter>A	*>Letter>A	*>Letter>A	*>Letter>A	*>Letter>A	*>Letter>A	*>Letter>A
*>Label>Intro	*>Label>Intro	*>Label>Intro	*>Label>Intro	*>Label>Intro	*>Label>Intro	*>Label>Intro	*>Label>Intro	*>Label>Intro
1I	D:maj(9)	.	.	.	0.766	newline	guitar	1D 1f# 1a
=2	=2	=2	=2	=2	=2	=2	=2	=2
1IId	E:maj/b7	.	.	.	2.549	.	guitar	1e 1g# 1b
=3	=3	=3	=3	=3	=3	=3	=3	=3
1IVc	G:maj/5	.	.	.	4.331	.	guitar	1g 1b 1D
=4	=4	=4	=4	=4	=4	=4	=4	=4
1I	D:maj(9)	.	.	.	6.113	.	guitar	1D 1f# 1a
=5	=5	=5	=5	=5	=5	=5	=5	=5
*>Letter>B	*>Letter>B	*>Letter>B	*>Letter>B	*>Letter>B	*>Letter>B	*>Letter>B	*>Letter>B	*>Letter>B
*>Label>Verse	*>Label>Verse	*>Label>Verse	*>Label>Verse	*>Label>Verse	*>Label>Verse	*>Label>Verse	*>Label>Verse	*>Label>Verse
1I	D:maj	Ooh	.	.	7.895	newline	voice	1D 1f# 1a
.	.	I	.	.	.	.	.	.
.	.	need	.	.	.	.	.	.
.	.	your	.	.	.	.	.	.
=6	=6	=6	=6	=6	=6	=6	=6	=6
1II	E:maj	love	.	.	9.631	.	voice	1E 1g# 1b
.	.	babe	.	.	.	.	.	.
.	.	.	.	.	.	.	.	.
.	.	.	.	.	.	.	.	.
=7	=7	=7	=7	=7	=7	=7	=7	=7
1IV	G:maj	Guess	.	.	11.367	.	voice	1G 1b 1dd
.	.	you	.	.	.	.	.	.
.	.	know	.	.	.	.	.	.
.	.	it's	.	.	.	.	.	.
.	.	true	.	A	.	.	.	.
=8	=8	=8	=8	=8	=8	=8	=8	=8
1I	D:maj	_	.	.	13.103	.	voice	1D 1f# 1a
.	.	.	.	.	.	.	.	.
.	.	.	.	.	.	.	.	.
=9	=9	=9	=9	=9	=9	=9	=9	=9
1I	D:maj	Hope	.	.	14.839	newline	voice	1D 1f# 1a
.	.	you	.	.	.	.	.	.
.	.	need	.	.	.	.	.	.
.	.	my	.	.	.	.	.	.
=10	=10	=10	=10	=10	=10	=10	=10	=10
1II	E:maj	love	.	.	16.576	.	voice	1E 1g# 1b
.	.	babe	.	.	.	.	.	.
.	.	.	.	.	.	.	.	.
.	.	.	.	.	.	.	.	.
=11	=11	=11	=11	=11	=11	=11	=11	=11
1IV	G:maj	Just	.	.	18.313	.	voice	1G 1b 1dd
.	.	like	.	.	.	.	.	.
.	.	I	.	.	.	.	.	.
.	.	need	.	.	.	.	.	.
.	.	you	.	A	.	.	.	.
=12	=12	=12	=12	=12	=12	=12	=12	=12
1I	D:maj	_	.	.	20.05	.	voice	1D 1f# 1a
.	.	.	.	.	.	.	.	.
.	.	.	.	.	.	.	.	.
=13	=13	=13	=13	=13	=13	=13	=13	=13
*>Letter>C	*>Letter>C	*>Letter>C	*>Letter>C	*>Letter>C	*>Letter>C	*>Letter>C	*>Letter>C	*>Letter>C
*>Label>Prechorus	*>Label>Prechorus	*>Label>Prechorus	*>Label>Prechorus	*>Label>Prechorus	*>Label>Prechorus	*>Label>Prechorus	*>Label>Prechorus	*>Label>Prechorus
1vi	B:min	Hold	Hold	.	21.787	newline	voice	1B 1dd 1ff#
.	.	me	me	B	.	.	.	.
.	.	.	.	.	.	.	.	.
.	.	.	.	.	.	.	.	.
=14	=14	=14	=14	=14	=14	=14	=14	=14
1IV	G:maj	Love	Love	.	23.528	.	voice	1G 1b 1dd
.	.	me	me	B	.	.	.	.
.	.	.	.	.	.	.	.	.
.	.	.	.	.	.	.	.	.
=15	=15	=15	=15	=15	=15	=15	=15	=15
1vi	B:min	Hold	Hold	.	25.27	.	voice	1B 1dd 1ff#
.	.	me	me	B	.	.	.	.
.	.	.	.	.	.	.	.	.
.	.	.	.	.	.	.	.	.
=16	=16	=16	=16	=16	=16	=16	=16	=16
1II	E:maj	Love	Love	.	27.011	.	voice	1E 1g# 1b
.	.	Me	Me	B	.	.	.	.
.	.	.	.	.	.	.	.	.
.	.	.	.	.	.	.	.	.
.	.	I	.	.	.	.	.	.
=17	=17	=17	=17	=17	=17	=17	=17	=17
*>Letter>B2	*>Letter>B2	*>Letter>B2	*>Letter>B2	*>Letter>B2	*>Letter>B2	*>Letter>B2	*>Letter>B2	*>Letter>B2
*>Label>Chorus	*>Label>Chorus	*>Label>Chorus	*>Label>Chorus	*>Label>Chorus	*>Label>Chorus	*>Label>Chorus	*>Label>Chorus	*>Label>Chorus
1I	D:maj	ain't	.	.	28.753	newline	voice	1D 1f# 1a
.	.	got	.	.	.	.	.	.
.	.	no-	.	.	.	.	.	.
.	.	-thin'	.	.	.	.	.	.
.	.	but	.	.	.	.	.	.
=18	=18	=18	=18	=18	=18	=18	=18	=18
1II	E:maj	love	.	.	30.473	.	voice	1E 1g# 1b
.	.	babe	.	C	.	.	.	.
.	.	.	.	.	.	.	.	.
=19	=19	=19	=19	=19	=19	=19	=19	=19
1IV	G:maj	.	.	.	32.193	.	voice	1G 1b 1dd
.	.	Eight	Eight	C	.	.	.	.
.	.	days	days	C	.	.	.	.
.	.	a	a	.	.	.	.	.
.	.	week	week	B	.	.	.	.
.	.	_	_	.	.	.	.	.
=20	=20	=20	=20	=20	=20	=20	=20	=20
1I	D:maj	_	_	.	33.913	.	voice	1D 1f# 1a
.	.	.	.	.	.	.	.	.
.	.	.	.	.	.	.	.	.
=21	=21	=21	=21	=21	=21	=21	=21	=21
*>Letter>B	*>Letter>B	*>Letter>B	*>Letter>B	*>Letter>B	*>Letter>B	*>Letter>B	*>Letter>B	*>Letter>B
*>Label>Verse	*>Label>Verse	*>Label>Verse	*>Label>Verse	*>Label>Verse	*>Label>Verse	*>Label>Verse	*>Label>Verse	*>Label>Verse
1I	D:maj	Love	.	.	35.634	newline	voice	1D 1f# 1a
.	.	you	.	.	.	.	.	.
.	.	ev-	.	.	.	.	.	.
.	.	-ery	.	.	.	.	.	.
.	.	day	.	.	.	.	.	.
=22	=22	=22	=22	=22	=22	=22	=22	=22
1II	E:maj	_	.	.	37.368	.	voice	1E 1g# 1b
.	.	girl	.	.	.	.	.	.
.	.	.	.	.	.	.	.	.
=23	=23	=23	=23	=23	=23	=23	=23	=23
1IV	G:maj	Al-	.	.	39.102	.	voice	1G 1b 1dd
.	.	-ways	.	.	.	.	.	.
.	.	on	.	.	.	.	.	.
.	.	my	.	.	.	.	.	.
.	.	mind	.	D	.	.	.	.
=24	=24	=24	=24	=24	=24	=24	=24	=24
1I	D:maj	_	.	.	40.837	.	voice	1D 1f# 1a
.	.	.	.	.	.	.	.	.
.	.	.	.	.	.	.	.	.
=25	=25	=25	=25	=25	=25	=25	=25	=25
1I	D:maj	One	.	.	42.571	newline	voice	1D 1f# 1a
.	.	thing	.	.	.	.	.	.
.	.	I	.	.	.	.	.	.
.	.	can	.	.	.	.	.	.
.	.	say	.	.	.	.	.	.
=26	=26	=26	=26	=26	=26	=26	=26	=26
1II	E:maj	_	.	.	44.308	.	voice	1E 1g# 1b
.	.	girl	.	.	.	.	.	.
.	.	_	.	.	.	.	.	.
.	.	.	.	.	.	.	.	.
=27	=27	=27	=27	=27	=27	=27	=27	=27
1IV	G:maj	Love	.	.	46.045	.	voice	1G 1b 1dd
.	.	you	.	.	.	.	.	.
.	.	all	.	.	.	.	.	.
.	.	the	.	.	.	.	.	.
.	.	time	.	D	.	.	.	.
=28	=28	=28	=28	=28	=28	=28	=28	=28
1I	D:maj	_	.	.	47.782	.	voice	1D 1f# 1a
.	.	.	.	.	.	.	.	.
.	.	.	.	.	.	.	.	.
=29	=29	=29	=29	=29	=29	=29	=29	=29
*>Letter>C	*>Letter>C	*>Letter>C	*>Letter>C	*>Letter>C	*>Letter>C	*>Letter>C	*>Letter>C	*>Letter>C
*>Label>Prechorus	*>Label>Prechorus	*>Label>Prechorus	*>Label>Prechorus	*>Label>Prechorus	*>Label>Prechorus	*>Label>Prechorus	*>Label>Prechorus	*>Label>Prechorus
1vi	B:min	Hold	Hold	.	49.519	newline	voice	1B 1dd 1ff#
.	.	me	me	B	.	.	.	.
.	.	.	.	.	.	.	.	.
.	.	.	.	.	.	.	.	.
=30	=30	=30	=30	=30	=30	=30	=30	=30
1IV	G:maj	Love	Love	.	51.247	.	voice	1G 1b 1dd
.	.	me	me	B	.	.	.	.
.	.	.	.	.	.	.	.	.
.	.	.	.	.	.	.	.	.
=31	=31	=31	=31	=31	=31	=31	=31	=31
1vi	B:min	Hold	Hold	.	52.975	.	voice	1B 1dd 1ff#
.	.	me	me	B	.	.	.	.
.	.	.	.	.	.	.	.	.
.	.	.	.	.	.	.	.	.
=32	=32	=32	=32	=32	=32	=32	=32	=32
1II	E:maj	Love	Love	.	54.703	.	voice	1E 1g# 1b
.	.	Me	Me	B	.	.	.	.
.	.	.	.	.	.	.	.	.
.	.	.	.	.	.	.	.	.
.	.	I	.	.	.	.	.	.
=33	=33	=33	=33	=33	=33	=33	=33	=33
*>Letter>B2	*>Letter>B2	*>Letter>B2	*>Letter>B2	*>Letter>B2	*>Letter>B2	*>Letter>B2	*>Letter>B2	*>Letter>B2
*>Label>Chorus	*>Label>Chorus	*>Label>Chorus	*>Label>Chorus	*>Label>Chorus	*>Label>Chorus	*>Label>Chorus	*>Label>Chorus	*>Label>Chorus
1I	D:maj	ain't	.	.	56.431	newline	voice	1D 1f# 1a
.	.	got	.	.	.	.	.	.
.	.	no-	.	.	.	.	.	.
.	.	-thin'	.	.	.	.	.	.
.	.	but	.	.	.	.	.	.
=34	=34	=34	=34	=34	=34	=34	=34	=34
1II	E:maj	love	.	.	58.14	.	voice	1E 1g# 1b
.	.	girl	.	.	.	.	.	.
.	.	.	.	.	.	.	.	.
=35	=35	=35	=35	=35	=35	=35	=35	=35
1IV	G:maj	.	.	.	59.849	.	voice	1G 1b 1dd
.	.	Eight	Eight	C	.	.	.	.
.	.	days	days	C	.	.	.	.
.	.	a	a	.	.	.	.	.
.	.	week	week	B	.	.	.	.
.	.	_	_	.	.	.	.	.
=36	=36	=36	=36	=36	=36	=36	=36	=36
1I	D:maj	_	_	.	61.559	.	voice	1D 1f# 1a
.	.	.	.	.	.	.	.	.
.	.	.	.	.	.	.	.	.
=37	=37	=37	=37	=37	=37	=37	=37	=37
*>Letter>D	*>Letter>D	*>Letter>D	*>Letter>D	*>Letter>D	*>Letter>D	*>Letter>D	*>Letter>D	*>Letter>D
*>Label>Bridge	*>Label>Bridge	*>Label>Bridge	*>Label>Bridge	*>Label>Bridge	*>Label>Bridge	*>Label>Bridge	*>Label>Bridge	*>Label>Bridge
1V	A:maj	Eight	Eight	C	63.268	newline	voice	1A 1cc# 1ee
.	.	days	days	C	.	.	.	.
.	.	a	a	.	.	.	.	.
=38	=38	=38	=38	=38	=38	=38	=38	=38
1V	A:maj	week	week	B	65.038	.	voice	1A 1cc# 1ee
.	.	.	.	.	.	.	.	.
.	.	I	I	.	.	.	.	.
=39	=39	=39	=39	=39	=39	=39	=39	=39
1vi	B:min	love	love	.	66.807	.	voice	1B 1dd 1ff#
.	.	_	_	.	.	.	.	.
.	.	_	_	.	.	.	.	.
.	.	_	_	.	.	.	.	.
=40	=40	=40	=40	=40	=40	=40	=40	=40
1vi	B:min	_	_	.	68.577	.	voice	1B 1dd 1ff#
.	.	_	_	.	.	.	.	.
.	.	you	you	.	.	.	.	.
.	.	.	.	.	.	.	.	.
.	.	.	.	.	.	.	.	.
=41	=41	=41	=41	=41	=41	=41	=41	=41
1II	E:maj	Eight	Eight	C	70.346	newline	voice	1E 1g# 1b
.	.	days	days	C	.	.	.	.
.	.	a	a	.	.	.	.	.
=42	=42	=42	=42	=42	=42	=42	=42	=42
1II	E:maj	week	week	B	72.09	.	voice	1E 1g# 1b
.	.	.	.	.	.	.	.	.
.	.	.	.	.	.	.	.	.
.	.	is	is	.	.	.	.	.
=43	=43	=43	=43	=43	=43	=43	=43	=43
1IV	G:maj	not	not	.	73.833	.	voice	1G 1b 1dd
.	.	e-	e-	.	.	.	.	.
.	.	-nough	-nough	.	.	.	.	.
.	.	to	to	.	.	.	.	.
=44	=44	=44	=44	=44	=44	=44	=44	=44
1V	A:maj	show	show	.	75.577	.	voice	1A 1cc# 1ee
.	.	I	I	.	.	.	.	.
.	.	care	care	.	.	.	.	.
.	.	.	.	.	.	.	.	.
=45	=45	=45	=45	=45	=45	=45	=45	=45
*>Letter>B	*>Letter>B	*>Letter>B	*>Letter>B	*>Letter>B	*>Letter>B	*>Letter>B	*>Letter>B	*>Letter>B
*>Label>Verse	*>Label>Verse	*>Label>Verse	*>Label>Verse	*>Label>Verse	*>Label>Verse	*>Label>Verse	*>Label>Verse	*>Label>Verse
1I	D:maj	Ooh	.	.	77.32	newline	voice	1D 1f# 1a
.	.	I	.	.	.	.	.	.
.	.	need	.	.	.	.	.	.
.	.	your	.	.	.	.	.	.
=46	=46	=46	=46	=46	=46	=46	=46	=46
1II	E:maj	love	.	.	79.057	.	voice	1E 1g# 1b
.	.	babe	.	.	.	.	.	.
.	.	.	.	.	.	.	.	.
.	.	.	.	.	.	.	.	.
=47	=47	=47	=47	=47	=47	=47	=47	=47
1IV	G:maj	Yes	.	.	80.794	.	voice	1G 1b 1dd
.	.	you	.	.	.	.	.	.
.	.	know	.	.	.	.	.	.
.	.	it's	.	.	.	.	.	.
.	.	true	.	A	.	.	.	.
=48	=48	=48	=48	=48	=48	=48	=48	=48
1I	D:maj	_	.	.	82.531	.	voice	1D 1f# 1a
.	.	.	.	.	.	.	.	.
.	.	.	.	.	.	.	.	.
=49	=49	=49	=49	=49	=49	=49	=49	=49
1I	D:maj	Hope	.	.	84.268	newline	voice	1D 1f# 1a
.	.	you	.	.	.	.	.	.
.	.	need	.	.	.	.	.	.
.	.	my	.	.	.	.	.	.
=50	=50	=50	=50	=50	=50	=50	=50	=50
1II	E:maj	love	.	.	86.015	.	voice	1E 1g# 1b
.	.	babe	.	.	.	.	.	.
.	.	.	.	.	.	.	.	.
.	.	.	.	.	.	.	.	.
=51	=51	=51	=51	=51	=51	=51	=51	=51
1IV	G:maj	Just	.	.	87.762	.	voice	1G 1b 1dd
.	.	like	.	.	.	.	.	.
.	.	I	.	.	.	.	.	.
.	.	need	.	.	.	.	.	.
.	.	you	.	A	.	.	.	.
=52	=52	=52	=52	=52	=52	=52	=52	=52
1I	D:maj	_	.	.	89.509	.	voice	1D 1f# 1a
.	.	.	.	.	.	.	.	.
.	.	Oh	.	.	.	.	.	.
.	.	_	.	.	.	.	.	.
.	.	_	.	.	.	.	.	.
.	.	huh	.	.	.	.	.	.
.	.	_	.	.	.	.	.	.
.	.	Hold	.	.	.	.	.	.
=53	=53	=53	=53	=53	=53	=53	=53	=53
*>Letter>C	*>Letter>C	*>Letter>C	*>Letter>C	*>Letter>C	*>Letter>C	*>Letter>C	*>Letter>C	*>Letter>C
*>Label>Prechorus	*>Label>Prechorus	*>Label>Prechorus	*>Label>Prechorus	*>Label>Prechorus	*>Label>Prechorus	*>Label>Prechorus	*>Label>Prechorus	*>Label>Prechorus
1vi	B:min	_	Hold	.	91.255	newline	voice	1B 1dd 1ff#
.	.	me	me	B	.	.	.	.
.	.	.	.	.	.	.	.	.
.	.	.	.	.	.	.	.	.
=54	=54	=54	=54	=54	=54	=54	=54	=54
1IV	G:maj	Love	Love	.	92.987	.	voice	1G 1b 1dd
.	.	me	me	B	.	.	.	.
.	.	.	.	.	.	.	.	.
.	.	.	.	.	.	.	.	.
=55	=55	=55	=55	=55	=55	=55	=55	=55
1vi	B:min	Hold	Hold	.	94.719	.	voice	1B 1dd 1ff#
.	.	me	me	B	.	.	.	.
.	.	_	.	.	.	.	.	.
.	.	.	.	.	.	.	.	.
.	.	.	.	.	.	.	.	.
=56	=56	=56	=56	=56	=56	=56	=56	=56
1II	E:maj	Love	Love	.	96.451	.	voice	1E 1g# 1b
.	.	Me	Me	B	.	.	.	.
.	.	.	.	.	.	.	.	.
.	.	.	.	.	.	.	.	.
.	.	I	.	.	.	.	.	.
=57	=57	=57	=57	=57	=57	=57	=57	=57
*>Letter>B2	*>Letter>B2	*>Letter>B2	*>Letter>B2	*>Letter>B2	*>Letter>B2	*>Letter>B2	*>Letter>B2	*>Letter>B2
*>Label>Chorus	*>Label>Chorus	*>Label>Chorus	*>Label>Chorus	*>Label>Chorus	*>Label>Chorus	*>Label>Chorus	*>Label>Chorus	*>Label>Chorus
1I	D:maj	ain't	.	.	98.182	newline	voice	1D 1f# 1a
.	.	got	.	.	.	.	.	.
.	.	no-	.	.	.	.	.	.
.	.	-thin'	.	.	.	.	.	.
.	.	but	.	.	.	.	.	.
=58	=58	=58	=58	=58	=58	=58	=58	=58
1II	E:maj	love	.	.	99.903	.	voice	1E 1g# 1b
.	.	babe	.	C	.	.	.	.
.	.	.	.	.	.	.	.	.
=59	=59	=59	=59	=59	=59	=59	=59	=59
1IV	G:maj	.	.	.	101.624	.	voice	1G 1b 1dd
.	.	Eight	Eight	C	.	.	.	.
.	.	days	days	C	.	.	.	.
.	.	a	a	.	.	.	.	.
.	.	week	week	B	.	.	.	.
.	.	_	_	.	.	.	.	.
=60	=60	=60	=60	=60	=60	=60	=60	=60
1I	D:maj	_	_	.	103.344	.	voice	1D 1f# 1a
.	.	.	.	.	.	.	.	.
.	.	.	.	.	.	.	.	.
=61	=61	=61	=61	=61	=61	=61	=61	=61
*>Letter>D	*>Letter>D	*>Letter>D	*>Letter>D	*>Letter>D	*>Letter>D	*>Letter>D	*>Letter>D	*>Letter>D
*>Label>Bridge	*>Label>Bridge	*>Label>Bridge	*>Label>Bridge	*>Label>Bridge	*>Label>Bridge	*>Label>Bridge	*>Label>Bridge	*>Label>Bridge
1V	A:maj	Eight	Eight	C	105.065	newline	voice	1A 1cc# 1ee
.	.	days	days	C	.	.	.	.
.	.	a	a	.	.	.	.	.
=62	=62	=62	=62	=62	=62	=62	=62	=62
1V	A:maj	week	week	B	106.831	.	voice	1A 1cc# 1ee
.	.	.	.	.	.	.	.	.
.	.	I	I	.	.	.	.	.
=63	=63	=63	=63	=63	=63	=63	=63	=63
1vi	B:min	love	love	.	108.597	.	voice	1B 1dd 1ff#
.	.	_	_	.	.	.	.	.
.	.	_	_	.	.	.	.	.
.	.	_	_	.	.	.	.	.
=64	=64	=64	=64	=64	=64	=64	=64	=64
1vi	B:min	_	_	.	110.363	.	voice	1B 1dd 1ff#
.	.	_	_	.	.	.	.	.
.	.	you	you	.	.	.	.	.
.	.	.	.	.	.	.	.	.
.	.	.	.	.	.	.	.	.
=65	=65	=65	=65	=65	=65	=65	=65	=65
1II	E:maj	Eight	Eight	C	112.129	newline	voice	1E 1g# 1b
.	.	days	days	C	.	.	.	.
.	.	a	a	.	.	.	.	.
=66	=66	=66	=66	=66	=66	=66	=66	=66
1II	E:maj	week	week	B	113.874	.	voice	1E 1g# 1b
.	.	.	.	.	.	.	.	.
.	.	.	.	.	.	.	.	.
.	.	.	.	.	.	.	.	.
.	.	is	is	.	.	.	.	.
=67	=67	=67	=67	=67	=67	=67	=67	=67
1IV	G:maj	not	not	.	115.619	.	voice	1G 1b 1dd
.	.	e-	e-	.	.	.	.	.
.	.	-nough	-nough	.	.	.	.	.
.	.	to	to	.	.	.	.	.
=68	=68	=68	=68	=68	=68	=68	=68	=68
1V	A:maj	show	show	.	117.363	.	voice	1A 1cc# 1ee
.	.	I	I	.	.	.	.	.
.	.	care	care	.	.	.	.	.
.	.	.	.	.	.	.	.	.
=69	=69	=69	=69	=69	=69	=69	=69	=69
*>Letter>B	*>Letter>B	*>Letter>B	*>Letter>B	*>Letter>B	*>Letter>B	*>Letter>B	*>Letter>B	*>Letter>B
*>Label>Verse	*>Label>Verse	*>Label>Verse	*>Label>Verse	*>Label>Verse	*>Label>Verse	*>Label>Verse	*>Label>Verse	*>Label>Verse
1I	D:maj	Love	.	.	119.108	newline	voice	1D 1f# 1a
.	.	you	.	.	.	.	.	.
.	.	ev-	.	.	.	.	.	.
.	.	-ery	.	.	.	.	.	.
.	.	day	.	C	.	.	.	.
=70	=70	=70	=70	=70	=70	=70	=70	=70
1II	E:maj	_	.	.	120.857	.	voice	1E 1g# 1b
.	.	girl	.	.	.	.	.	.
.	.	.	.	.	.	.	.	.
=71	=71	=71	=71	=71	=71	=71	=71	=71
1IV	G:maj	Al-	.	.	122.605	.	voice	1G 1b 1dd
.	.	-ways	.	.	.	.	.	.
.	.	on	.	.	.	.	.	.
.	.	my	.	.	.	.	.	.
.	.	mind	.	D	.	.	.	.
=72	=72	=72	=72	=72	=72	=72	=72	=72
1I	D:maj	_	.	.	124.354	.	voice	1D 1f# 1a
.	.	.	.	.	.	.	.	.
.	.	.	.	.	.	.	.	.
=73	=73	=73	=73	=73	=73	=73	=73	=73
1I	D:maj	One	.	.	126.102	newline	voice	1D 1f# 1a
.	.	thing	.	.	.	.	.	.
.	.	I	.	.	.	.	.	.
.	.	can	.	.	.	.	.	.
.	.	say	.	C	.	.	.	.
=74	=74	=74	=74	=74	=74	=74	=74	=74
1II	E:maj	_	.	.	127.857	.	voice	1E 1g# 1b
.	.	girl	.	.	.	.	.	.
.	.	_	.	.	.	.	.	.
.	.	.	.	.	.	.	.	.
=75	=75	=75	=75	=75	=75	=75	=75	=75
1IV	G:maj	Love	.	.	129.612	.	voice	1G 1b 1dd
.	.	you	.	.	.	.	.	.
.	.	all	.	.	.	.	.	.
.	.	the	.	.	.	.	.	.
.	.	time	.	D	.	.	.	.
=76	=76	=76	=76	=76	=76	=76	=76	=76
1I	D:maj	_	.	.	131.366	.	voice	1D 1f# 1a
.	.	.	.	.	.	.	.	.
.	.	.	.	.	.	.	.	.
=77	=77	=77	=77	=77	=77	=77	=77	=77
*>Letter>C	*>Letter>C	*>Letter>C	*>Letter>C	*>Letter>C	*>Letter>C	*>Letter>C	*>Letter>C	*>Letter>C
*>Label>Prechorus	*>Label>Prechorus	*>Label>Prechorus	*>Label>Prechorus	*>Label>Prechorus	*>Label>Prechorus	*>Label>Prechorus	*>Label>Prechorus	*>Label>Prechorus
1vi	B:min	Hold	Hold	.	133.121	newline	voice	1B 1dd 1ff#
.	.	me	me	B	.	.	.	.
.	.	.	.	.	.	.	.	.
.	.	.	.	.	.	.	.	.
=78	=78	=78	=78	=78	=78	=78	=78	=78
1IV	G:maj	Love	Love	.	134.851	.	voice	1G 1b 1dd
.	.	me	me	B	.	.	.	.
.	.	.	.	.	.	.	.	.
.	.	.	.	.	.	.	.	.
=79	=79	=79	=79	=79	=79	=79	=79	=79
1vi	B:min	Hold	Hold	.	136.581	.	voice	1B 1dd 1ff#
.	.	me	me	B	.	.	.	.
.	.	_	.	.	.	.	.	.
.	.	.	.	.	.	.	.	.
.	.	.	.	.	.	.	.	.
=80	=80	=80	=80	=80	=80	=80	=80	=80
1II	E:maj	Love	Love	.	138.311	.	voice	1E 1g# 1b
.	.	Me	Me	B	.	.	.	.
.	.	.	.	.	.	.	.	.
.	.	.	.	.	.	.	.	.
.	.	I	.	.	.	.	.	.
=81	=81	=81	=81	=81	=81	=81	=81	=81
*>Letter>B3	*>Letter>B3	*>Letter>B3	*>Letter>B3	*>Letter>B3	*>Letter>B3	*>Letter>B3	*>Letter>B3	*>Letter>B3
*>Label>Chorus	*>Label>Chorus	*>Label>Chorus	*>Label>Chorus	*>Label>Chorus	*>Label>Chorus	*>Label>Chorus	*>Label>Chorus	*>Label>Chorus
1I	D:maj	ain't	.	.	140.041	newline	voice	1D 1f# 1a
.	.	got	.	.	.	.	.	.
.	.	no-	.	.	.	.	.	.
.	.	-thin'	.	.	.	.	.	.
.	.	but	.	.	.	.	.	.
=82	=82	=82	=82	=82	=82	=82	=82	=82
1II	E:maj	love	.	.	141.753	.	voice	1E 1g# 1b
.	.	babe	.	C	.	.	.	.
.	.	.	.	.	.	.	.	.
=83	=83	=83	=83	=83	=83	=83	=83	=83
1IV	G:maj	.	.	.	143.465	.	voice	1G 1b 1dd
.	.	Eight	Eight	C	.	.	.	.
.	.	days	days	C	.	.	.	.
.	.	a	a	.	.	.	.	.
.	.	week	week	B	.	.	.	.
.	.	_	_	.	.	.	.	.
=84	=84	=84	=84	=84	=84	=84	=84	=84
1I	D:maj	_	_	.	145.177	.	voice	1D 1f# 1a
.	.	.	.	.	.	.	.	.
.	.	.	.	.	.	.	.	.
=85	=85	=85	=85	=85	=85	=85	=85	=85
1IV	G:maj	.	.	.	146.89	newline	voice	1G 1b 1dd
.	.	Eight	Eight	C	.	.	.	.
.	.	days	days	C	.	.	.	.
.	.	a	a	.	.	.	.	.
.	.	week	week	B	.	.	.	.
.	.	_	_	.	.	.	.	.
=86	=86	=86	=86	=86	=86	=86	=86	=86
1I	D:maj	_	_	.	148.631	.	voice	1D 1f# 1a
.	.	.	.	.	.	.	.	.
.	.	.	.	.	.	.	.	.
=87	=87	=87	=87	=87	=87	=87	=87	=87
1IV	G:maj	.	.	.	150.373	.	voice	1G 1b 1dd
.	.	Eight	Eight	C	.	.	.	.
.	.	days	days	C	.	.	.	.
.	.	a	a	.	.	.	.	.
.	.	week	week	B	.	.	.	.
.	.	_	_	.	.	.	.	.
=88	=88	=88	=88	=88	=88	=88	=88	=88
1I	D:maj	_	_	.	152.114	.	voice	1D 1f# 1a
.	.	.	.	.	.	.	.	.
.	.	.	.	.	.	.	.	.
=89	=89	=89	=89	=89	=89	=89	=89	=89
*>Letter>A	*>Letter>A	*>Letter>A	*>Letter>A	*>Letter>A	*>Letter>A	*>Letter>A	*>Letter>A	*>Letter>A
*>Label>Outro	*>Label>Outro	*>Label>Outro	*>Label>Outro	*>Label>Outro	*>Label>Outro	*>Label>Outro	*>Label>Outro	*>Label>Outro
1I	D:maj(9)	.	.	.	153.856	newline	guitar	1D 1f# 1a
=90	=90	=90	=90	=90	=90	=90	=90	=90
1IId	E:maj/b7	.	.	.	155.614	.	guitar	1e 1g# 1b
=91	=91	=91	=91	=91	=91	=91	=91	=91
1IVc	G:maj/5	.	.	.	157.371	.	guitar	1g 1b 1D
=92	=92	=92	=92	=92	=92	=92	=92	=92
1I	D:maj(9)	.	.	.	159.129	.	guitar	1D 1f# 1a
1r;	N	.	.	.	162.645	.	r	1r;
1r;	N	.	.	.	164.419	.	r	1r;
*-	*-	*-	*-	*-	*-	*-	*-	*-
!!!BillboardChartDate: 1965/03/27
!!!BillboardPeak: 1
!!!BillboardWeeksOnChart: 10
!!!COC: The Beatles
!!!ENC: Nathaniel Condit-Schultz
!!!EST: Awating manual error checking and editing.
!!!OTL: Eight Days A Week
!!!RDF**harte: Chris Harte's syntax, used by MIREX
!!!RDF**harmony: **recip + pitch class of root + harmonic quality
!!!RDF**leadinstrument: original McGill primary instrumentation annotation
!!!RDF**phrase: newline = linebreak in original McGill transcription
!!!RDF**timestamp: McGill audio timestamp in seconds
!!!RDT: 2017/01/12/
!!!SampleActualRank: 4
!!!SampleID#: 0727
!!!SampleTargetRank: 2
!!!MBID: 9c2b1e21-33f3-4482-813b-c9ea34094a3a
